outputs/icons/toggle/indeterminate_check_box_round.svg

<svg width="1200" height="1200" viewBox="0 0 1200 1200" fill="none" xmlns="http://www.w3.org/2000/svg"><g clip-path="url(#clip0_238_2766)"><path d="M950 150H250C195 150 150 195 150 250V950C150 1005 195 1050 250 1050H950C1005 1050 1050 1005 1050 950V250C1050 195 1005 150 950 150ZM800 650H400C372.5 650 350 627.5 350 600C350 572.5 372.5 550 400 550H800C827.5 550 850 572.5 850 600C850 627.5 827.5 650 800 650Z" fill="#1D1E23"/></g><defs><clipPath id="clip0_238_2766"><path width="24" fill="white" d="M0 0H1200V1200H0V0z"/></clipPath></defs></svg>

<svg xmlns="http://www.w3.org/2000/svg" width="1200" height="1200" fill="none"><g clip-path="url(#a)"><path fill="#000" d="M950 150H250c-55 0-100 45-100 100v700c0 55 45 100 100 100h700c55 0 100-45 100-100V250c0-55-45-100-100-100M800 650H400c-27.5 0-50-22.5-50-50s22.5-50 50-50h400c27.5 0 50 22.5 50 50s-22.5 50-50 50"/></g><defs><clipPath id="a"><path fill="#fff" d="M0 0h1200v1200H0z"/></clipPath></defs></svg>
